!! 00007] TT[TB
!! Eigene Aufnahme
!!!OTL: Hudie feilai you feiqu
!!!ARE: Asia, China,ÿJiangsu, Suzhou
!! Ethnic Group: Han
!! III, 497
!!!SCT: C0170
!!!YEM: Copyright 1995, estate of Helmut Schaffrath.
**kern
*ICvox
*Ivox
*M2/4
*k[b-]
*F:
{8.f
16d
16.cc
32dd
16cc
16a
=1
2g
=2
8.a
16cc
8d
8f
=3
8.g
16a
16f
16g
16f
16d
=4
8.c
16A
4c}
=5
{8d
8f
16f
16d
8c
=6
8f
4d
8c
=7
2d}
=8
{8d
16d
16c
8d
8f
=9
8.g
16a
16f
16g
16f
16d
=10
8.c
16A
4c}
=11
{8d
16d
16f
16f
16d
8c
=12
4.cc
8r}
=13
{8cc
8dd
8cc
16cc
16a
=14
8.g
16a
16cc
16a
8cc
=15
8a
16a
16ff
16dd
16cc
16a
16g
=16
8f
4f
8g
=17
8f
4f
8r}
=18
{[2dd
=19
2dd]
=20
8.cc
16dd
8cc
8a
=21
8cc
16dd
16ff
8cc
8a
=22
16g
16f
16g
16a
4cc}
=23
{8a
16a
16ff
16dd
16cc
16a
16g
=24
8f
4f
8g
=25
8f
4f
8r}
==
!!!AGN: Xiaodiao, Shidiao, Xiao jiulianhuan. Biaoda aiqing
!! Zungeneffekte kommen hauptaechlich in den Xiaodiao,vor. Es soll
!!    sie auch in Japan geben. Saengerin: Huang Bai Einige Verzierungen. Nachspiel
!!    weggelassen. ++++ Vielleicht eine Zeile verloren! ++++
!!!ONB: ESAC (Essen Associative Code) Database: CHINA
!!!AMT: simple duple
!!!AIN: vox
!!!EED: Helmut Schaffrath
!!!EEV: 1.0
*-
!!!ONB: Tied note syntax fixed by Craig Sapp, 2004/05/03/
